assets/images/avatar.svg

<svg width="101" height="100" viewBox="0 0 101 100" fill="none" xmlns="http://www.w3.org/2000/svg">
<g clip-path="url(#clip0_26_2539)">
<path d="M51.3948 65.2788C60.3589 65.2788 67.6258 58.0119 67.6258 49.0478C67.6258 40.0836 60.3589 32.8168 51.3948 32.8168C42.4307 32.8168 35.1638 40.0836 35.1638 49.0478C35.1638 58.0119 42.4307 65.2788 51.3948 65.2788Z" fill="#FFB6B6"/>
<path d="M42.0771 67.679L41.3438 60.2667L55.9869 57.5286L64.6335 78.5812L49.5959 95.8745L38.8816 74.8219L42.0771 67.679Z" fill="#FFB6B6"/>
<path d="M41.1086 63.977L44.31 64.7003C44.31 64.7003 41.7934 56.7201 42.6476 55.9583C43.5017 55.1964 45.5949 56.3969 45.5949 56.3969L47.7946 58.863L50.4739 56.1351C50.4739 56.1351 53.3827 52.5182 54.5216 51.5023C55.6605 50.4865 53.8312 46.7159 53.8312 46.7159C53.8312 46.7159 70.7281 42.1597 64.4407 33.9641C64.4407 33.9641 60.7545 27.5385 59.554 29.6317C58.3536 31.7248 56.9221 28.4004 56.9221 28.4004L52.5511 29.2316C52.5511 29.2316 43.9244 24.1451 35.7366 35.0267C27.5488 45.9082 41.1086 63.977 41.1086 63.977Z" fill="#2F2E41"/>
<path d="M81.921 88.9004C73.0507 96.0922 62.077 100 50.5 100C39.9285 100 29.859 96.7407 21.436 90.6993C21.4511 90.5414 21.4661 90.3854 21.4793 90.2294C21.703 87.7858 21.9022 85.4098 22.0338 83.4399C22.5432 75.7914 40.3872 70.6937 40.3872 70.6937C40.3872 70.6937 40.468 70.7745 40.6297 70.9155C41.6146 71.7801 45.6127 74.9155 52.624 75.7914C58.8759 76.5734 60.9342 72.8647 61.5564 71.0884C61.7443 70.547 61.8007 70.1843 61.8007 70.1843L80.1541 78.8516C81.3515 80.5621 81.8195 84.2463 81.9116 88.3873C81.9154 88.5583 81.9192 88.7275 81.921 88.9004Z" fill="#EEEEEE"/>
</g>
<defs>
<clipPath id="clip0_26_2539">
<rect width="100" height="100" fill="white" transform="translate(0.5)"/>
</clipPath>
</defs>
</svg>

<svg width="101" height="100" fill="none" xmlns="http://www.w3.org/2000/svg"><g clip-path="url(#a)"><path d="M51.395 65.279c8.964 0 16.23-7.267 16.23-16.231 0-8.964-7.266-16.231-16.23-16.231s-16.231 7.267-16.231 16.23c0 8.965 7.267 16.232 16.23 16.232Z" fill="#FFB6B6"/><path d="m42.077 67.679-.733-7.412 14.643-2.738 8.646 21.052-15.037 17.293-10.714-21.052 3.195-7.143Z" fill="#FFB6B6"/><path d="m41.109 63.977 3.201.723s-2.517-7.98-1.662-8.742c.854-.762 2.947.439 2.947.439l2.2 2.466 2.679-2.728s2.909-3.617 4.048-4.633c1.139-1.016-.69-4.786-.69-4.786S70.727 42.16 64.44 33.964c0 0-3.687-6.425-4.887-4.332-1.2 2.093-2.632-1.232-2.632-1.232l-4.37.832s-8.628-5.087-16.815 5.795c-8.188 10.881 5.372 28.95 5.372 28.95Z" fill="#2F2E41"/><path d="M81.921 88.9C73.051 96.092 62.077 100 50.5 100c-10.572 0-20.641-3.26-29.064-9.3.015-.159.03-.315.043-.47.224-2.444.423-4.82.555-6.79.51-7.649 18.353-12.746 18.353-12.746s.081.08.243.221c.985.865 4.983 4 11.994 4.876 6.252.782 8.31-2.926 8.932-4.703.188-.541.245-.904.245-.904l18.353 8.668c1.198 1.71 1.666 5.394 1.758 9.535.003.171.007.34.009.513Z" fill="#EEE"/></g><defs><clipPath id="a"><path fill="#fff" transform="translate(.5)" d="M0 0h100v100H0z"/></clipPath></defs></svg>
